images/icons/amazon-music.svg

<svg fill="none" height="24" viewBox="0 0 24 24" width="24" xmlns="http://www.w3.org/2000/svg" xmlns:xlink="http://www.w3.org/1999/xlink"><clipPath id="a"><path d="m0 5h24v14.02h-24z"/></clipPath><g clip-path="url(#a)" fill="#000"><path d="m15.952 11.0663c-.1618.1079-.4045.1888-.701.1888-.4584 0-.8898-.054-1.3212-.1888-.1078-.0269-.1887-.0539-.2426-.0539-.0809 0-.1079.0539-.1079.1618v.2696c0 .0809.027.1348.054.1887.0269.027.0809.0809.1617.1079.4314.1887.9167.2696 1.456.2696.5661 0 .9975-.1348 1.348-.4044s.5123-.6201.5123-1.0785c0-.3235-.0809-.56618-.2427-.78187-.1617-.18873-.4313-.37746-.8088-.51227l-.7549-.29658c-.2966-.10784-.5123-.21569-.5932-.32353-.1078-.10785-.1617-.2157-.1617-.40443 0-.40442.2965-.62011.9166-.62011.3505 0 .701.05392 1.0246.16177.1078.02696.1887.05392.2157.05392.0809 0 .1348-.05392.1348-.16177v-.26961c0-.08089-.027-.13481-.0539-.18873-.027-.05392-.0809-.08089-.1618-.10785-.4044-.1348-.8089-.21569-1.2133-.21569-.5122 0-.9436.13481-1.2672.37746-.3235.24265-.4853.59315-.4853.99758 0 .62011.3505 1.07845 1.0515 1.34807l.8089.29657c.2696.10785.4314.18877.5392.29657.1078.1079.1348.2157.1348.3775 0 .2157-.0809.4044-.2426.5122z"/><path d="m11.7189 7.18385v3.58585c-.4583.2966-.9166.4584-1.375.4584-.2966 0-.51226-.0809-.64707-.2427-.1348-.1618-.18873-.4044-.18873-.7549v-3.04665c0-.13481-.05392-.18873-.18873-.18873h-.56619c-.1348 0-.18873.05392-.18873.18873v3.34325c0 .4583.10785.8358.3505 1.0784.24265.2427.59315.3775 1.0515.3775.62015 0 1.24025-.2157 1.83335-.6471l.0539.3235c0 .0809.027.1079.0809.1349.027.0269.0809.0269.1618.0269h.4044c.1348 0 .1888-.0539.1888-.1887v-4.44865c0-.13481-.054-.18873-.1888-.18873h-.5662c-.1617 0-.2157.08088-.2157.18873z"/><path d="m6.59628 11.8482h.56619c.13481 0 .18873-.0539.18873-.1887v-3.37019c0-.45835-.10784-.80885-.35049-1.0515-.24266-.24265-.56619-.37746-1.02454-.37746-.62011 0-1.26719.21569-1.8873.67404-.21569-.45835-.62011-.67404-1.21327-.67404-.59315 0-1.1863.21569-1.77945.62012l-.05392-.29658c0-.08089-.02697-.10785-.080889-.13481-.026961-.02696-.080884-.02696-.134807-.02696h-.431383c-.134807 0-.18873.05392-.18873.18873v4.47565c0 .1348.053923.1887.18873.1887h.56619c.134809 0 .188729-.0539.188729-.1887v-3.63984c.45835-.26962.91669-.43139 1.402-.43139.26961 0 .45834.08089.56619.24266.10784.16176.18873.37746.18873.70099v3.10058c0 .1348.05392.1887.18873.1887h.56619c.1348 0 .18873-.0539.18873-.1887v-3.31627-.16177c0-.05392 0-.10784 0-.1348.4853-.29658.94365-.43139 1.40199-.43139.26962 0 .45835.08089.56619.24266.10785.16176.18873.37746.18873.70099v3.10058c0 .1348.05393.1887.18873.1887z"/><path d="m21.2903 15.4341c-2.9388 1.2403-6.1472 1.8604-9.059 1.8604-4.31386 0-8.49289-1.1863-11.863068-3.1545-.053923-.027-.107846-.0539-.161769-.0539-.1887302 0-.2965759.2157-.1078458.4044 3.1275228 2.8309 7.2795928 4.5295 11.8630828 4.5295 3.2892 0 7.0908-1.0245 9.7061-2.9658.4583-.3235.0809-.8088-.3775-.6201z"/><path d="m21.2094 8.07363c.2427-.26961.6201-.40442 1.1593-.40442.2697 0 .5393.02696.7819.10785.0809.02696.1079.02696.1618.02696.0809 0 .1348-.05392.1348-.18873v-.26962c0-.08088-.027-.16176-.0539-.18873-.027-.02696-.0809-.08088-.1348-.10784-.3505-.08089-.701-.16177-1.0246-.16177-.7549 0-1.3211.21569-1.7525.67404-.4044.43138-.6201 1.07845-.6201 1.8873 0 .80883.1888 1.42893.5932 1.86033s.9706.6471 1.7255.6471c.4044 0 .7819-.0539 1.0785-.1887.0809-.027.1348-.054.1617-.1079.027-.027.027-.1078.027-.1887v-.2696c0-.1348-.0539-.1888-.1348-.1888-.027 0-.0809 0-.1348.027-.2966.0809-.5932.1348-.8628.1348-.5122 0-.8897-.1348-1.1324-.4044-.2426-.2696-.3505-.701-.3505-1.26721v-.13481c.027-.59315.1348-1.02453.3775-1.29415z"/><path d="m22.4227 17.9685c1.402-1.1863 1.7794-3.6398 1.4829-4.0173-.1348-.1617-.7819-.3235-1.5908-.3235-.8627 0-1.8873.1887-2.6691.7279-.2427.1618-.1888.3775.0539.3505.8358-.1078 2.7231-.3235 3.0736.1079.3235.4314-.3775 2.2108-.701 2.9927-.0809.2427.1078.3235.3505.1618z"/><path d="m18.6751 6.99512h-.5662c-.1348 0-.1887.05392-.1887.18873v4.47555c0 .1349.0539.1888.1887.1888h.5662c.1348 0 .1887-.0539.1887-.1888v-4.47555c0-.10785-.0539-.18873-.1887-.18873z"/><path d="m18.8368 5.16177c-.1079-.10785-.2696-.16177-.4584-.16177-.1887 0-.3235.05392-.4314.16177-.1078.10784-.1617.24265-.1617.40442s.0539.32354.1617.40442c.1079.10785.2427.16177.4314.16177.1888 0 .3236-.05392.4314-.16177.1079-.10784.1618-.24265.1618-.40442s-.027-.32354-.1348-.40442z"/></g></svg>

<svg width="24" height="24" viewBox="0 0 24 24" fill="none" xmlns="http://www.w3.org/2000/svg">
<g clip-path="url(#clip0_1450_812)">
<path d="M15.952 11.0663C15.7902 11.1742 15.5475 11.2551 15.251 11.2551C14.7926 11.2551 14.3612 11.2011 13.9298 11.0663C13.822 11.0394 13.7411 11.0124 13.6872 11.0124C13.6063 11.0124 13.5793 11.0663 13.5793 11.1742V11.4438C13.5793 11.5247 13.6063 11.5786 13.6333 11.6325C13.6602 11.6595 13.7142 11.7134 13.795 11.7404C14.2264 11.9291 14.7117 12.01 15.251 12.01C15.8171 12.01 16.2485 11.8752 16.599 11.6056C16.9495 11.336 17.1113 10.9855 17.1113 10.5271C17.1113 10.2036 17.0304 9.96092 16.8686 9.74523C16.7069 9.5565 16.4373 9.36777 16.0598 9.23296L15.3049 8.93638C15.0083 8.82854 14.7926 8.72069 14.7117 8.61285C14.6039 8.505 14.55 8.39715 14.55 8.20842C14.55 7.804 14.8465 7.58831 15.4666 7.58831C15.8171 7.58831 16.1676 7.64223 16.4912 7.75008C16.599 7.77704 16.6799 7.804 16.7069 7.804C16.7878 7.804 16.8417 7.75008 16.8417 7.64223V7.37262C16.8417 7.29173 16.8147 7.23781 16.7878 7.18389C16.7608 7.12997 16.7069 7.103 16.626 7.07604C16.2216 6.94124 15.8171 6.86035 15.4127 6.86035C14.9005 6.86035 14.4691 6.99516 14.1455 7.23781C13.822 7.48046 13.6602 7.83096 13.6602 8.23539C13.6602 8.8555 14.0107 9.31384 14.7117 9.58346L15.5206 9.88003C15.7902 9.98788 15.952 10.0688 16.0598 10.1766C16.1676 10.2845 16.1946 10.3923 16.1946 10.5541C16.1946 10.7698 16.1137 10.9585 15.952 11.0663Z" fill="black"/>
<path d="M11.7189 7.18385V10.7697C11.2606 11.0663 10.8023 11.2281 10.3439 11.2281C10.0473 11.2281 9.83164 11.1472 9.69683 10.9854C9.56203 10.8236 9.5081 10.581 9.5081 10.2305V7.18385C9.5081 7.04904 9.45418 6.99512 9.31937 6.99512H8.75318C8.61838 6.99512 8.56445 7.04904 8.56445 7.18385V10.5271C8.56445 10.9854 8.6723 11.3629 8.91495 11.6055C9.1576 11.8482 9.5081 11.983 9.96645 11.983C10.5866 11.983 11.2067 11.7673 11.7998 11.3359L11.8537 11.6594C11.8537 11.7403 11.8807 11.7673 11.9346 11.7943C11.9616 11.8212 12.0155 11.8212 12.0964 11.8212H12.5008C12.6356 11.8212 12.6896 11.7673 12.6896 11.6325V7.18385C12.6896 7.04904 12.6356 6.99512 12.5008 6.99512H11.9346C11.7729 6.99512 11.7189 7.076 11.7189 7.18385Z" fill="black"/>
<path d="M6.59628 11.8482H7.16247C7.29728 11.8482 7.3512 11.7943 7.3512 11.6595V8.28931C7.3512 7.83096 7.24336 7.48046 7.00071 7.23781C6.75805 6.99516 6.43452 6.86035 5.97617 6.86035C5.35606 6.86035 4.70898 7.07604 4.08887 7.53439C3.87318 7.07604 3.46876 6.86035 2.8756 6.86035C2.28245 6.86035 1.6893 7.07604 1.09615 7.48047L1.04223 7.18389C1.04223 7.103 1.01526 7.07604 0.961341 7.04908C0.93438 7.02212 0.880457 7.02212 0.826534 7.02212H0.395151C0.260344 7.02212 0.206421 7.07604 0.206421 7.21085V11.6865C0.206421 11.8213 0.260344 11.8752 0.395151 11.8752H0.961341C1.09615 11.8752 1.15007 11.8213 1.15007 11.6865V8.04666C1.60842 7.77704 2.06676 7.61527 2.55207 7.61527C2.82168 7.61527 3.01041 7.69616 3.11826 7.85793C3.2261 8.01969 3.30699 8.23539 3.30699 8.55892V11.6595C3.30699 11.7943 3.36091 11.8482 3.49572 11.8482H4.06191C4.19671 11.8482 4.25064 11.7943 4.25064 11.6595V8.34323V8.18146C4.25064 8.12754 4.25064 8.07362 4.25064 8.04666C4.73594 7.75008 5.19429 7.61527 5.65263 7.61527C5.92225 7.61527 6.11098 7.69616 6.21882 7.85793C6.32667 8.01969 6.40755 8.23539 6.40755 8.55892V11.6595C6.40755 11.7943 6.46148 11.8482 6.59628 11.8482Z" fill="black"/>
<path d="M21.2903 15.4341C18.3515 16.6744 15.1431 17.2945 12.2313 17.2945C7.91744 17.2945 3.73841 16.1082 0.368232 14.14C0.314309 14.113 0.260386 14.0861 0.206463 14.0861C0.0177328 14.0861 -0.0901129 14.3018 0.0986172 14.4905C3.22614 17.3214 7.37821 19.02 11.9617 19.02C15.2509 19.02 19.0525 17.9955 21.6678 16.0542C22.1261 15.7307 21.7487 15.2454 21.2903 15.4341Z" fill="black"/>
<path d="M21.2094 8.07363C21.4521 7.80402 21.8295 7.66921 22.3687 7.66921C22.6384 7.66921 22.908 7.69617 23.1506 7.77706C23.2315 7.80402 23.2585 7.80402 23.3124 7.80402C23.3933 7.80402 23.4472 7.7501 23.4472 7.61529V7.34567C23.4472 7.26479 23.4202 7.18391 23.3933 7.15694C23.3663 7.12998 23.3124 7.07606 23.2585 7.0491C22.908 6.96821 22.5575 6.88733 22.2339 6.88733C21.479 6.88733 20.9128 7.10302 20.4814 7.56137C20.077 7.99275 19.8613 8.63982 19.8613 9.44867C19.8613 10.2575 20.0501 10.8776 20.4545 11.309C20.8589 11.7404 21.4251 11.9561 22.18 11.9561C22.5844 11.9561 22.9619 11.9022 23.2585 11.7674C23.3394 11.7404 23.3933 11.7134 23.4202 11.6595C23.4472 11.6325 23.4472 11.5517 23.4472 11.4708V11.2012C23.4472 11.0664 23.3933 11.0124 23.3124 11.0124C23.2854 11.0124 23.2315 11.0124 23.1776 11.0394C22.881 11.1203 22.5844 11.1742 22.3148 11.1742C21.8026 11.1742 21.4251 11.0394 21.1824 10.7698C20.9398 10.5002 20.8319 10.0688 20.8319 9.50259V9.36778C20.8589 8.77463 20.9667 8.34325 21.2094 8.07363Z" fill="black"/>
<path d="M22.4227 17.9685C23.8247 16.7822 24.2021 14.3287 23.9056 13.9512C23.7708 13.7895 23.1237 13.6277 22.3148 13.6277C21.4521 13.6277 20.4275 13.8164 19.6457 14.3556C19.403 14.5174 19.4569 14.7331 19.6996 14.7061C20.5354 14.5983 22.4227 14.3826 22.7732 14.814C23.0967 15.2454 22.3957 17.0248 22.0722 17.8067C21.9913 18.0494 22.18 18.1302 22.4227 17.9685Z" fill="black"/>
<path d="M18.6751 6.99512H18.1089C17.9741 6.99512 17.9202 7.04904 17.9202 7.18385V11.6594C17.9202 11.7943 17.9741 11.8482 18.1089 11.8482H18.6751C18.8099 11.8482 18.8638 11.7943 18.8638 11.6594V7.18385C18.8638 7.076 18.8099 6.99512 18.6751 6.99512Z" fill="black"/>
<path d="M18.8368 5.16177C18.7289 5.05392 18.5672 5 18.3784 5C18.1897 5 18.0549 5.05392 17.947 5.16177C17.8392 5.26961 17.7853 5.40442 17.7853 5.56619C17.7853 5.72796 17.8392 5.88973 17.947 5.97061C18.0549 6.07846 18.1897 6.13238 18.3784 6.13238C18.5672 6.13238 18.702 6.07846 18.8098 5.97061C18.9177 5.86277 18.9716 5.72796 18.9716 5.56619C18.9716 5.40442 18.9446 5.24265 18.8368 5.16177Z" fill="black"/>
</g>
<defs>
<clipPath id="clip0_1450_812">
<rect width="24" height="14.02" fill="white" transform="translate(0 5)"/>
</clipPath>
</defs>
</svg>
